docs/.gitbook/assets/icon-chevron-up-down-16@light.svg

<svg width="32" height="32" viewBox="0 0 16 16" fill="none" xmlns="http://www.w3.org/2000/svg">
<rect x="0" y="0" width="16" height="16" fill="#fff"/>
<path fill-rule="evenodd" clip-rule="evenodd" d="M7.46967 2.46967C7.76256 2.17678 8.23744 2.17678 8.53033 2.46967L11.5303 5.46967C11.8232 5.76256 11.8232 6.23744 11.5303 6.53033C11.2374 6.82322 10.7626 6.82322 10.4697 6.53033L8 4.06066L5.53033 6.53033C5.23744 6.82322 4.76256 6.82322 4.46967 6.53033C4.17678 6.23744 4.17678 5.76256 4.46967 5.46967L7.46967 2.46967ZM4.46967 9.46967C4.76256 9.17678 5.23744 9.17678 5.53033 9.46967L8 11.9393L10.4697 9.46967C10.7626 9.17678 11.2374 9.17678 11.5303 9.46967C11.8232 9.76256 11.8232 10.2374 11.5303 10.5303L8.53033 13.5303C8.38968 13.671 8.19891 13.75 8 13.75C7.80109 13.75 7.61032 13.671 7.46967 13.5303L4.46967 10.5303C4.17678 10.2374 4.17678 9.76256 4.46967 9.46967Z" fill="#000"/>
</svg>

<svg xmlns="http://www.w3.org/2000/svg" width="32" height="32" fill="none" viewBox="0 0 16 16"><path fill="#fff" d="M0 0h16v16H0z"/><path fill="#000" fill-rule="evenodd" d="M7.47 2.47a.75.75 0 0 1 1.06 0l3 3a.75.75 0 0 1-1.06 1.06L8 4.06 5.53 6.53a.75.75 0 0 1-1.06-1.06zm-3 7a.75.75 0 0 1 1.06 0L8 11.94l2.47-2.47a.75.75 0 1 1 1.06 1.06l-3 3a.75.75 0 0 1-1.06 0l-3-3a.75.75 0 0 1 0-1.06" clip-rule="evenodd"/></svg>
